icons/alarm-warning-fill.svg

<svg viewBox="0 0 24 24" fill="currentColor" xmlns="http://www.w3.org/2000/svg"><path d="M4.00001 20V14C4.00001 9.58172 7.58173 6 12 6C16.4183 6 20 9.58172 20 14V20H21V22H3.00001V20H4.00001ZM6.00001 14H8.00001C8.00001 11.7909 9.79087 10 12 10V8C8.6863 8 6.00001 10.6863 6.00001 14ZM11 2H13V5H11V2ZM19.7782 4.80761L21.1924 6.22183L19.0711 8.34315L17.6569 6.92893L19.7782 4.80761ZM2.80762 6.22183L4.22183 4.80761L6.34315 6.92893L4.92894 8.34315L2.80762 6.22183Z"/></svg>

<svg xmlns="http://www.w3.org/2000/svg" viewBox="0 0 24 24">
    <g>
        <path fill="none" d="M0 0h24v24H0z"/>
        <path d="M4 20v-6a8 8 0 1 1 16 0v6h1v2H3v-2h1zm2-6h2a4 4 0 0 1 4-4V8a6 6 0 0 0-6 6zm5-12h2v3h-2V2zm8.778 2.808l1.414 1.414-2.12 2.121-1.415-1.414 2.121-2.121zM2.808 6.222l1.414-1.414 2.121 2.12L4.93 8.344 2.808 6.222z"/>
    </g>
</svg>
